X:1
T:As I Went Up to Dublin City
Z: id:dc-polka-47
M:2/4
L:1/8
K:A Major
D/|CE EF/G/|AA AB/c/|dB cA|FE E>D|!
CD EF/G/|AA AB/c/|dB cA|FE E3/2|]!
B/|ce ec|BA A>B|ce ec|BA B>B|!
ce ec|BA AB/c/|dB cA|FE E3/2|]!